app/assets/images/payment_icons/op.svg

<svg xmlns="http://www.w3.org/2000/svg" width="38" height="24" viewBox="0 0 38 24" fill="none" aria-labelledby="pi-op" role="img"><title id="pi-op">OP</title><rect width="38" height="24" fill="white"/><path d="M26.122 16.082C24.295 16.082 23.69 14.692 23.69 13.303V11.173C23.69 9.78301 24.295 8.39301 26.122 8.39301C27.939 8.39301 28.545 9.78301 28.545 11.173V13.303C28.545 14.693 27.939 16.083 26.122 16.083V16.082ZM27.89 11.172C27.89 9.99901 27.443 9.02101 26.122 9.02101C24.792 9.02101 24.345 9.99901 24.345 11.172V13.303C24.345 14.477 24.792 15.454 26.122 15.454C27.442 15.454 27.89 14.477 27.89 13.303V11.173V11.172ZM31.74 12.922H30.042V15.742C30.042 15.938 29.904 16.082 29.715 16.082C29.671 16.0818 29.6275 16.0727 29.587 16.0554C29.5465 16.0381 29.5099 16.0128 29.4794 15.9811C29.4488 15.9494 29.4249 15.912 29.409 15.8709C29.3931 15.8298 29.3857 15.786 29.387 15.742V8.82501C29.387 8.64001 29.537 8.48501 29.715 8.48501H31.621C33.319 8.48501 33.924 9.50501 33.924 10.462V10.987C33.924 12.119 33.11 12.922 31.74 12.922ZM33.27 10.472C33.27 9.86401 32.902 9.12401 31.592 9.12401H30.042V12.294H31.721C32.783 12.294 33.269 11.697 33.269 10.976V10.472H33.27Z" fill="#6E6E6E"/><path d="M11.955 20.456C13.0653 20.456 14.1648 20.2373 15.1906 19.8124C16.2164 19.3875 17.1485 18.7647 17.9336 17.9796C18.7187 17.1945 19.3415 16.2624 19.7664 15.2366C20.1913 14.2108 20.41 13.1113 20.41 12.001C20.41 10.8907 20.1913 9.79124 19.7664 8.76543C19.3415 7.73962 18.7187 6.80755 17.9336 6.02243C17.1485 5.23731 16.2164 4.61452 15.1906 4.18962C14.1648 3.76472 13.0653 3.54602 11.955 3.54602C9.71259 3.54602 7.56203 4.43681 5.97641 6.02243C4.39079 7.60805 3.5 9.75862 3.5 12.001C3.5 14.2434 4.39079 16.394 5.97641 17.9796C7.56203 19.5652 9.71259 20.456 11.955 20.456Z" fill="#FF6A10"/><path d="M18.59 12C18.5899 11.3262 18.4078 10.6649 18.063 10.086C17.7182 9.50707 17.2235 9.03198 16.6311 8.7109C16.0387 8.38981 15.3706 8.23464 14.6974 8.26177C14.0241 8.28889 13.3706 8.4973 12.806 8.865V5.367H11.106V8.865C10.5413 8.49737 9.88779 8.28904 9.2145 8.26201C8.5412 8.23499 7.87311 8.39027 7.28075 8.71146C6.68839 9.03265 6.19375 9.50784 5.84906 10.0868C5.50437 10.6658 5.32242 11.3272 5.32242 12.001C5.32242 12.6748 5.50437 13.3362 5.84906 13.9152C6.19375 14.4942 6.68839 14.9694 7.28075 15.2905C7.87311 15.6117 8.5412 15.767 9.2145 15.74C9.88779 15.713 10.5413 15.5046 11.106 15.137V18.635H12.806V15.137C13.3708 15.5048 14.0244 15.7132 14.6979 15.7403C15.3713 15.7673 16.0396 15.612 16.632 15.2906C17.2245 14.9693 17.7191 14.4939 18.0638 13.9147C18.4084 13.3355 18.5902 12.674 18.59 12ZM11.106 12C11.106 12.268 11.0532 12.5334 10.9506 12.7811C10.8481 13.0287 10.6977 13.2537 10.5082 13.4432C10.3187 13.6327 10.0937 13.7831 9.84606 13.8856C9.59843 13.9882 9.33303 14.041 9.065 14.041C8.79697 14.041 8.53157 13.9882 8.28395 13.8856C8.03632 13.7831 7.81132 13.6327 7.6218 13.4432C7.43227 13.2537 7.28193 13.0287 7.17936 12.7811C7.07679 12.5334 7.024 12.268 7.024 12C7.024 11.4587 7.23904 10.9396 7.6218 10.5568C8.00456 10.174 8.5237 9.959 9.065 9.959C9.60631 9.959 10.1254 10.174 10.5082 10.5568C10.891 10.9396 11.106 11.4587 11.106 12ZM16.889 12C16.889 12.5412 16.674 13.0602 16.2914 13.4429C15.9087 13.8255 15.3897 14.0405 14.8485 14.0405C14.3073 14.0405 13.7883 13.8255 13.4057 13.4429C13.023 13.0602 12.808 12.5412 12.808 12C12.808 11.4588 13.023 10.9398 13.4057 10.5572C13.7883 10.1745 14.3073 9.9595 14.8485 9.9595C15.3897 9.9595 15.9087 10.1745 16.2914 10.5572C16.674 10.9398 16.889 11.4588 16.889 12Z" fill="white"/></svg>

<svg xmlns="http://www.w3.org/2000/svg" width="38" height="24" fill="none" aria-labelledby="pi-op" role="img" viewBox="0 0 38 24"><title id="pi-op">OP</title><path fill="#fff" d="M0 0h38v24H0z"/><path fill="#6E6E6E" d="M26.122 16.082c-1.827 0-2.432-1.39-2.432-2.779v-2.13c0-1.39.605-2.78 2.432-2.78 1.817 0 2.423 1.39 2.423 2.78v2.13c0 1.39-.606 2.78-2.423 2.78zm1.768-4.91c0-1.173-.447-2.151-1.768-2.151-1.33 0-1.777.978-1.777 2.151v2.131c0 1.174.447 2.151 1.777 2.151 1.32 0 1.768-.977 1.768-2.151zm3.85 1.75h-1.698v2.82c0 .196-.138.34-.327.34a.33.33 0 0 1-.328-.34V8.825c0-.185.15-.34.328-.34h1.906c1.698 0 2.303 1.02 2.303 1.977v.525c0 1.132-.814 1.935-2.184 1.935m1.53-2.45c0-.608-.368-1.348-1.678-1.348h-1.55v3.17h1.679c1.062 0 1.548-.597 1.548-1.318v-.504z"/><path fill="#FF6A10" d="M11.955 20.456a8.455 8.455 0 1 0 0-16.91 8.455 8.455 0 0 0 0 16.91"/><path fill="#fff" d="M18.59 12a3.741 3.741 0 0 0-5.784-3.135V5.367h-1.7v3.498a3.742 3.742 0 1 0 0 6.272v3.498h1.7v-3.498A3.743 3.743 0 0 0 18.59 12m-7.484 0a2.041 2.041 0 1 1-4.082 0 2.041 2.041 0 0 1 4.082 0m5.783 0a2.04 2.04 0 1 1-4.082 0 2.04 2.04 0 0 1 4.082 0"/></svg>
